X:930
T:Babes In the Wood
S:Irene Anderson, Crieff
Z:Nigel Gatherer
M:4/4
L:1/8
K:A
E2 | A3 c ecAc | e2 a2 g2 f2 | e3 c ecAc  | B2 d2 c2 B2 |
     A3 c ecAc | e2 a2 g2 f2 | e3 c a2 c2 | B4    A2   :|
F2 | E3 G BGEG | B2 d2 c2 B2 | A3 c ecAc  | e2 a2 g2 f2 |
     e3 c a3 f | e3  c a3  f | e3 c a2 c2 | B4    A2   :|
<end>
<start>
